X:633
T: GOTT DES HIMMELS UND DER ERDEN
N: E1991
O: Europa, Mitteleuropa, Deutschland
R: geistlich, Dank -, Lob - Lied; Morgen - Lied
M: 4/4
L: 1/4
K: G
 | GABd | GFED |
EFGA | BAG2 |
GABd | GFED |
EFGA | BAG2 |
BBAB | cBA2 |
EFGA | BAG2

@@@ Tune index: 5317
